X:1
T:Title
%%score { ( 1 3 4 ) | ( 2 5 ) }
L:1/8
Q:1/4=100
M:4/4
K:Bb
V:1 treble nm="Grand Piano"
V:3 treble 
V:4 treble 
V:2 bass 
V:5 bass 
V:1
 .[B,DB]2 .F2 .[G,DG]2 .F2 | .[B,DB]2 .F2 .[DG]2 .F2 | [DB]2 z z/ B/ c2 d>c | [DB]6[K:bass] z2 | %4
w: C.~Austin~Miles * * *||||
 F2 F2 G2 G2 | A2 _A2 =A4 | A2 A2 B2 B2 |[M:7/8] c2 =B2 c3 |[M:3/8] d3/2c3/2 | %9
w: |||||
[M:4/4] .[B,DB]2 .F2 .[G,DG]2 .F2 | .[B,DB]2 .F2 .[G,DG]2 .F2 | [DB]2 [DB]>[DB] c2 d>c | [DB]6 z2 | %13
w: ||||
 c2 c2 c2 =B2 | c6 z2 | [B,DB]2 [DB]2 [B,DB]2 G2 | [B,DB]2 [B,DB]2 F2 D>E | F2 D2 G2 D2 | %18
w: |||||
 F2 D2 G2 D2 | [DB]2 [DB]>B c2 d>c | [B,DB]2 z2 z4 |] %21
w: |||
V:2
 .B,,2 F,2 .B,,2 F,2 | .B,,2 F,2 .[B,,G,]2 .[B,,F,]2 | %2
 [B,,B,]2 .[B,,B,]>D [F,A,E]2 [F,A,F]>[F,A,E] | [B,,B,]2 F,2 B,,2 z2 | %4
 [F,A,E]2 [F,A,E]2 [F,B,E]2 [F,B,E]2 | [F,CE]2 [F,=B,E]2 [F,CE]4 | %6
 [F,CE]2 [F,CE]2 [F,DF]2 [F,DF]2 |[M:7/8] [F,EF]2 [F,DF]2 [F,EF]3 |[M:3/8] [F,F]3/2[F,E]3/2 | %9
[M:4/4] .B,,2 F,2 .B,,2 F,2 | .B,,2 F,2 .B,,2 F,2 | %11
 [B,,B,]2 [B,,B,]>[B,,B,] [F,A,E]2 [F,A,F]>[F,A,E] | [B,,B,]2 F,2 B,,2 z z/ D/ | %13
 [F,A,E]2 [F,A,E]2 [F,A,E]2 [F,_A,D]2 | E2- [F,E-]2 [F,E]2 F>E | B,,2 F,2 B,,2 G,2 | %16
 B,,2 B,,2 F,2 D,>E, | F,2 D,2 G,2 D,2 | F,2 D,2 G,2 D,2 | [B,,B,]2 z z/ D/ [F,A,E]2 F>E | %20
 B,,2 F,2 B,2 z2 |] %21
V:3
 x8 | x8 | z2 [DB]2 z4 | z4[K:bass] G,2 F,2 | x8 | x8 | x8 |[M:7/8] x7 |[M:3/8] x3 |[M:4/4] x8 | %10
 x8 | x8 | z4 G,2 [CA]>B | x8 | z2 _A,2 =A,2 d>c | x8 | x8 | x8 | x8 | x8 | x8 |] %21
V:4
 x8 | x8 | z2 z B, z4 | x4[K:bass] x4 | x8 | x8 | x8 |[M:7/8] x7 |[M:3/8] x3 |[M:4/4] x8 | x8 | %11
 x8 | x8 | x8 | x8 | x8 | x8 | x8 | x8 | x8 | x8 |] %21
V:5
 x8 | x8 | z2 z B,, z4 | x8 | x8 | x8 | x8 |[M:7/8] x7 |[M:3/8] x3 |[M:4/4] x8 | x8 | x8 | %12
 z4 z2 F,2 | x8 | [F,A,]2 z2 z2 [F,A,]2 | x8 | x8 | x8 | x8 | z2 [B,,B,]2 z2 [F,A,]2 | x8 |] %21

